X:1
T:In Dreams
C:Howard Shore
Z:Merecraft of Laurelin
Q:1/4=76
M:4/4
L:1/8
K:C
z z z z z z cd |e2 g4 de |c4 z2 eg |a3 c' bg z2 |e4 d2 cd |e2 g4 de |c6 eg |a4 g2 e2 |d4 z2 CD |E2 G2 E2 D2 |C4 z2 EG |A2 c2 B2 G2 |(E4 D2) CD |E2 G2 E2 D2 |C4 z2 EG |(A4 A)A GE |D8 |CD E4 CD |E4 z E (AB) |
(c3 d/c/ B2) G2 |E4 D2 CD |E6 CD |E4 z E (GB) |c4 (d3 c/d/) |(e4 e)c A(c |c2) G6 |_A3 G/F/ _E3 F/G/ |F4 _E2 D2 |C4 _B,3 =B,/B,/ |C6 z F/G/ |E2 G2 E2 D2 |C4 z2 EG |A2 c2 B2 G2 |(E4 D2) CD |E2 G2 E2 D2 |
C4 z E (AB) |c4 (d3 c/d/) |e4 ec A(c |c7/2 z9/2 |]
%End of file
